svg/layers.svg

<?xml version="1.0" encoding="UTF-8" standalone="no"?>
<svg
   xmlns:dc="http://purl.org/dc/elements/1.1/"
   xmlns:cc="http://creativecommons.org/ns#"
   xmlns:rdf="http://www.w3.org/1999/02/22-rdf-syntax-ns#"
   xmlns:svg="http://www.w3.org/2000/svg"
   xmlns="http://www.w3.org/2000/svg"
   xmlns:sodipodi="http://sodipodi.sourceforge.net/DTD/sodipodi-0.dtd"
   xmlns:inkscape="http://www.inkscape.org/namespaces/inkscape"
   class="ionicon"
   viewBox="0 0 512 512"
   version="1.1"
   id="svg10"
   sodipodi:docname="layers.svg"
   inkscape:version="1.0.2 (e86c8708, 2021-01-15)">
  <metadata
     id="metadata16">
    <rdf:RDF>
      <cc:Work
         rdf:about="">
        <dc:format>image/svg+xml</dc:format>
        <dc:type
           rdf:resource="http://purl.org/dc/dcmitype/StillImage" />
      </cc:Work>
    </rdf:RDF>
  </metadata>
  <defs
     id="defs14" />
  <sodipodi:namedview
     pagecolor="#ffffff"
     bordercolor="#666666"
     borderopacity="1"
     objecttolerance="10"
     gridtolerance="10"
     guidetolerance="10"
     inkscape:pageopacity="0"
     inkscape:pageshadow="2"
     inkscape:window-width="689"
     inkscape:window-height="480"
     id="namedview12"
     showgrid="false"
     inkscape:zoom="1.3027344"
     inkscape:cx="256"
     inkscape:cy="256"
     inkscape:window-x="44"
     inkscape:window-y="25"
     inkscape:window-maximized="0"
     inkscape:current-layer="svg10" />
  <title
     id="title2">Layers</title>
  <path
     style="color:#000000;font-style:normal;font-variant:normal;font-weight:normal;font-stretch:normal;font-size:medium;line-height:normal;font-family:sans-serif;font-variant-ligatures:normal;font-variant-position:normal;font-variant-caps:normal;font-variant-numeric:normal;font-variant-alternates:normal;font-variant-east-asian:normal;font-feature-settings:normal;font-variation-settings:normal;text-indent:0;text-align:start;text-decoration:none;text-decoration-line:none;text-decoration-style:solid;text-decoration-color:#000000;letter-spacing:normal;word-spacing:normal;text-transform:none;writing-mode:lr-tb;direction:ltr;text-orientation:mixed;dominant-baseline:auto;baseline-shift:baseline;text-anchor:start;white-space:normal;shape-padding:0;shape-margin:0;inline-size:0;clip-rule:nonzero;display:inline;overflow:visible;visibility:visible;isolation:auto;mix-blend-mode:normal;color-interpolation:sRGB;color-interpolation-filters:linearRGB;solid-color:#000000;solid-opacity:1;vector-effect:none;fill:#000000;fill-opacity:1;fill-rule:nonzero;stroke-width:1;stroke-linecap:butt;stroke-linejoin:miter;stroke-miterlimit:4;stroke-dasharray:none;stroke-dashoffset:0;stroke-opacity:1;color-rendering:auto;image-rendering:auto;shape-rendering:auto;text-rendering:auto;enable-background:accumulate;stop-color:#000000;stop-opacity:1;stroke:none;opacity:1"
     d="m 256,256 c -13.47,0 -26.94,-2.39 -37.44,-7.17 l -148,-67.49 C 63.79,178.26 48,169.25 48,152.24 c 0,-17.01 15.79,-26 22.58,-29.12 L 219.86,55.05 c 20.57,-9.4 51.61,-9.4 72.19,0 l 149.37,68.07 c 6.79,3.09 22.58,12.1 22.58,29.12 0,17.02 -15.79,26 -22.58,29.11 l -148,67.48 C 282.94,253.61 269.47,256 256,256 Z M 432.76,155.14 Z"
     id="path4" />
  <path
     style="color:#000000;font-style:normal;font-variant:normal;font-weight:normal;font-stretch:normal;font-size:medium;line-height:normal;font-family:sans-serif;font-variant-ligatures:normal;font-variant-position:normal;font-variant-caps:normal;font-variant-numeric:normal;font-variant-alternates:normal;font-variant-east-asian:normal;font-feature-settings:normal;font-variation-settings:normal;text-indent:0;text-align:start;text-decoration:none;text-decoration-line:none;text-decoration-style:solid;text-decoration-color:#000000;letter-spacing:normal;word-spacing:normal;text-transform:none;writing-mode:lr-tb;direction:ltr;text-orientation:mixed;dominant-baseline:auto;baseline-shift:baseline;text-anchor:start;white-space:normal;shape-padding:0;shape-margin:0;inline-size:0;clip-rule:nonzero;display:inline;overflow:visible;visibility:visible;isolation:auto;mix-blend-mode:normal;color-interpolation:sRGB;color-interpolation-filters:linearRGB;solid-color:#000000;solid-opacity:1;vector-effect:none;fill:#000000;fill-opacity:1;fill-rule:nonzero;stroke-width:1;stroke-linecap:butt;stroke-linejoin:miter;stroke-miterlimit:4;stroke-dasharray:none;stroke-dashoffset:0;stroke-opacity:1;color-rendering:auto;image-rendering:auto;shape-rendering:auto;text-rendering:auto;enable-background:accumulate;stop-color:#000000;stop-opacity:1;stroke:none;opacity:1"
     d="m 441.36,226.81 -15.09,-6.81 -38.77,17.74 -94,43 c -10.5,4.8 -24,7.19 -37.44,7.19 -13.44,0 -26.93,-2.39 -37.42,-7.19 l -94.07,-43 L 85.79,220 70.57,226.84 C 63.79,229.93 48,239 48,256 c 0,17 15.79,26.08 22.56,29.17 l 148,67.63 c 10.44,4.8 23.93,7.2 37.44,7.2 13.51,0 26.94,-2.4 37.44,-7.19 L 441.31,285.2 C 448.12,282.11 464,273.09 464,256 c 0,-17.09 -15.77,-26.07 -22.64,-29.19 z"
     id="path6" />
  <path
     style="color:#000000;font-style:normal;font-variant:normal;font-weight:normal;font-stretch:normal;font-size:medium;line-height:normal;font-family:sans-serif;font-variant-ligatures:normal;font-variant-position:normal;font-variant-caps:normal;font-variant-numeric:normal;font-variant-alternates:normal;font-variant-east-asian:normal;font-feature-settings:normal;font-variation-settings:normal;text-indent:0;text-align:start;text-decoration:none;text-decoration-line:none;text-decoration-style:solid;text-decoration-color:#000000;letter-spacing:normal;word-spacing:normal;text-transform:none;writing-mode:lr-tb;direction:ltr;text-orientation:mixed;dominant-baseline:auto;baseline-shift:baseline;text-anchor:start;white-space:normal;shape-padding:0;shape-margin:0;inline-size:0;clip-rule:nonzero;display:inline;overflow:visible;visibility:visible;isolation:auto;mix-blend-mode:normal;color-interpolation:sRGB;color-interpolation-filters:linearRGB;solid-color:#000000;solid-opacity:1;vector-effect:none;fill:#000000;fill-opacity:1;fill-rule:nonzero;stroke-width:1;stroke-linecap:butt;stroke-linejoin:miter;stroke-miterlimit:4;stroke-dasharray:none;stroke-dashoffset:0;stroke-opacity:1;color-rendering:auto;image-rendering:auto;shape-rendering:auto;text-rendering:auto;enable-background:accumulate;stop-color:#000000;stop-opacity:1;stroke:none;opacity:1"
     d="m 441.36,330.8 -15.09,-6.8 -38.77,17.73 -94,42.95 c -10.5,4.78 -24,7.18 -37.44,7.18 -13.44,0 -26.93,-2.39 -37.42,-7.18 l -94.07,-43 L 85.79,324 70.57,330.84 C 63.79,333.93 48,343 48,360 c 0,17 15.79,26.07 22.56,29.15 l 148,67.59 C 229,461.52 242.54,464 256,464 c 13.46,0 26.88,-2.48 37.38,-7.27 L 441.3,389.16 c 6.82,-3.08 22.7,-12.1 22.7,-29.16 0,-17.06 -15.77,-26.07 -22.64,-29.2 z"
     id="path8" />
</svg>

<svg xmlns="http://www.w3.org/2000/svg" width="512" height="512" viewBox="0 0 512 512"><title>ionicons-v5-a</title><path d="M256,256c-13.47,0-26.94-2.39-37.44-7.17l-148-67.49C63.79,178.26,48,169.25,48,152.24s15.79-26,22.58-29.12L219.86,55.05c20.57-9.4,51.61-9.4,72.19,0l149.37,68.07c6.79,3.09,22.58,12.1,22.58,29.12s-15.79,26-22.58,29.11l-148,67.48C282.94,253.61,269.47,256,256,256ZM432.76,155.14h0Z"/><path d="M441.36,226.81,426.27,220,387.5,237.74l-94,43c-10.5,4.8-24,7.19-37.44,7.19s-26.93-2.39-37.42-7.19l-94.07-43L85.79,220l-15.22,6.84C63.79,229.93,48,239,48,256s15.79,26.08,22.56,29.17l148,67.63C229,357.6,242.49,360,256,360s26.94-2.4,37.44-7.19L441.31,285.2C448.12,282.11,464,273.09,464,256S448.23,229.93,441.36,226.81Z"/><path d="M441.36,330.8,426.27,324,387.5,341.73l-94,42.95c-10.5,4.78-24,7.18-37.44,7.18s-26.93-2.39-37.42-7.18l-94.07-43L85.79,324l-15.22,6.84C63.79,333.93,48,343,48,360s15.79,26.07,22.56,29.15l148,67.59C229,461.52,242.54,464,256,464s26.88-2.48,37.38-7.27l147.92-67.57C448.12,386.08,464,377.06,464,360S448.23,333.93,441.36,330.8Z"/></svg>
